X:586
T:Reel 586
M:4/4
K:Dmaj
L:1/8
A>E (3DEF G>F (3EDE |F>G (3FEF B2B>d||c2cB A2B>A|G>E (3EDE B2c2:||2FABc d2dB|A>D (3DDD F2D2| (3Acd D2 B>D (3FEF |B>E (3EEE B2A2||D>F (3FEF A2Ac| (3Bcd AF EGF2D>:||2 (3Bcd A2 F>D (3EDE |FABc ded2|
